src/assets/icons/stroke/bulletList.svg

<svg xmlns="http://www.w3.org/2000/svg" width="1em" height="1em" fill="none"><path fill="currentColor" d="M4 10.5c-.8 0-1.5.7-1.5 1.5s.7 1.5 1.5 1.5 1.5-.7 1.5-1.5-.7-1.5-1.5-1.5Zm0-5c-.8 0-1.5.7-1.5 1.5S3.2 8.5 4 8.5 5.5 7.8 5.5 7 4.8 5.5 4 5.5Zm0 10c-.8 0-1.5.7-1.5 1.5s.7 1.5 1.5 1.5 1.5-.7 1.5-1.5-.7-1.5-1.5-1.5ZM7.5 6v2h14V6h-14Zm0 12h14v-2h-14v2Zm0-5h14v-2h-14v2Z"/></svg>

<svg width="1em" height="1em" viewBox="0 0 24 24" fill="none" xmlns="http://www.w3.org/2000/svg">
    <path
        d="M4 10.5C3.2 10.5 2.5 11.2 2.5 12C2.5 12.8 3.2 13.5 4 13.5C4.8 13.5 5.5 12.8 5.5 12C5.5 11.2 4.8 10.5 4 10.5ZM4 5.5C3.2 5.5 2.5 6.2 2.5 7C2.5 7.8 3.2 8.5 4 8.5C4.8 8.5 5.5 7.8 5.5 7C5.5 6.2 4.8 5.5 4 5.5ZM4 15.5C3.2 15.5 2.5 16.2 2.5 17C2.5 17.8 3.2 18.5 4 18.5C4.8 18.5 5.5 17.8 5.5 17C5.5 16.2 4.8 15.5 4 15.5ZM7.5 6V8H21.5V6H7.5ZM7.5 18H21.5V16H7.5V18ZM7.5 13H21.5V11H7.5V13Z"
        fill="currentColor" />
</svg>
